Yaru++/apps/16/google-drive.svg

<svg height="16" viewBox="0 0 16 16" width="16" xmlns="http://www.w3.org/2000/svg">
  <path d="m5.5.98046875 5 9.00000005h5.5l-5.333984-9.00000005zm-.5 1.03906245-5 8.9999998 2.6660156 4 5.0332032-7.9999998zm1.5 8.9414068-2.5 3.998046h9.332031l2.667969-3.998046z" fill="#808080"/>
</svg>

<svg xmlns="http://www.w3.org/2000/svg" width="16" height="16" version="1.1" viewBox="0 0 16 16">
 <path fill="#808080" d="M 5.5 0.98046875 L 10.5 9.9804688 L 16 9.9804688 L 10.666016 0.98046875 L 5.5 0.98046875 z M 5 2.0195312 L 0 11.019531 L 2.6660156 15.019531 L 7.6992188 7.0195312 L 5 2.0195312 z M 6.5 10.960938 L 4 14.958984 L 13.332031 14.958984 L 16 10.960938 L 6.5 10.960938 z"/>
</svg>
